public/hd-4k.svg

<svg width="284" height="24" viewBox="0 0 284 24" fill="none" xmlns="http://www.w3.org/2000/svg">
<g clip-path="url(#clip0_191_4019)">
<path d="M11.7812 11.9999H22.9715C22.9715 18.0637 17.9613 22.9796 11.7812 22.9796V11.9999Z" fill="white"/>
<path d="M11.7811 1.02026V12H0.59082C0.59082 5.93621 5.60106 1.02026 11.7811 1.02026Z" fill="white"/>
<path d="M11.7811 22.9797C17.9614 22.9797 22.9714 18.0639 22.9714 12C22.9714 5.93605 17.9614 1.02026 11.7811 1.02026C5.60089 1.02026 0.59082 5.93605 0.59082 12C0.59082 18.0639 5.60089 22.9797 11.7811 22.9797Z" stroke="white" stroke-miterlimit="10"/>
<path d="M142.414 22.029C165.072 22.029 183.441 17.5388 183.441 12C183.441 6.46114 165.072 1.97101 142.414 1.97101C119.755 1.97101 101.386 6.46114 101.386 12C101.386 17.5388 119.755 22.029 142.414 22.029Z" stroke="white" stroke-miterlimit="10"/>
<path d="M142.414 22.029C148.059 22.029 152.635 17.5388 152.635 12C152.635 6.46114 148.059 1.97101 142.414 1.97101C136.769 1.97101 132.192 6.46114 132.192 12C132.192 17.5388 136.769 22.029 142.414 22.029Z" stroke="white" stroke-miterlimit="10"/>
<path d="M142.414 13.8435C143.451 13.8435 144.292 13.0181 144.292 12C144.292 10.9818 143.451 10.1565 142.414 10.1565C141.376 10.1565 140.535 10.9818 140.535 12C140.535 13.0181 141.376 13.8435 142.414 13.8435Z" fill="white"/>
<path d="M243.233 24H205.632C204.297 24 203.21 22.9333 203.21 21.6232V2.37681C203.21 1.06667 204.297 0 205.632 0H243.233C244.568 0 245.655 1.06667 245.655 2.37681V21.6116C245.667 22.9333 244.58 24 243.233 24Z" fill="white"/>
<path d="M210.253 15.0029V12.9623L217.579 7.14203H221.254V13.1362H223.322V15.0029H221.254V17.171H218.323V15.0029H210.253ZM218.312 9.29855H218.241L213.526 13.0667V13.1478H218.323V9.29855H218.312Z" fill="black"/>
<path d="M238.813 17.171H234.985L230.754 12.1855L227.895 14.2493V17.171H224.87V6.91016H227.895V11.4087L233.969 6.91016H238.057L233.071 10.516L238.813 17.171Z" fill="black"/>
<path d="M79.4312 24H41.8308C40.4955 24 39.4084 22.9333 39.4084 21.6232V2.37681C39.3965 1.06667 40.4837 0 41.8308 0H79.4312C80.7664 0 81.8536 1.06667 81.8536 2.37681V21.6116C81.8536 22.9333 80.7664 24 79.4312 24Z" fill="white"/>
<path d="M59.6029 6.91016V17.171H56.5779V13.0087H49.2279V17.171H46.2029V6.91016H49.2279V10.829H56.5779V6.91016H59.6029Z" fill="black"/>
<path d="M75.4726 12.0464C75.4726 15.7333 73.2274 17.171 69.1744 17.171H61.8126V6.91016H69.1744C73.2156 6.91016 75.4726 8.35943 75.4726 12.0464ZM64.8377 9.05508V15.0261H68.5126C70.8169 15.0261 72.1403 14.1797 72.1403 12.0348C72.1403 9.88987 70.8169 9.04349 68.5126 9.04349H64.8377V9.05508Z" fill="black"/>
<path d="M283.705 22.516C275.705 22.516 267.717 22.516 259.717 22.516C259.705 22.5044 259.693 22.5044 259.681 22.4928C259.551 22.4464 259.469 22.3536 259.421 22.2261C259.41 22.2029 259.41 22.1913 259.386 22.1681C259.386 22.1102 259.386 22.0638 259.386 22.0058C259.398 21.9942 259.41 21.971 259.41 21.9594C259.433 21.9131 259.457 21.8667 259.481 21.8203C259.811 21.2522 260.142 20.6841 260.485 20.1275C260.91 19.3971 261.336 18.6783 261.761 17.9478C262.317 16.9971 262.884 16.0464 263.439 15.0957C263.971 14.1913 264.503 13.2986 265.023 12.3942C265.578 11.4435 266.145 10.4812 266.712 9.53044C267.22 8.67247 267.729 7.8145 268.237 6.94494C268.804 5.99421 269.359 5.03189 269.926 4.08117C270.387 3.29276 270.848 2.51595 271.309 1.72755C271.38 1.6116 271.474 1.51885 271.604 1.48407C271.616 1.48407 271.616 1.47247 271.628 1.47247C271.687 1.47247 271.746 1.47247 271.805 1.47247C271.817 1.48407 271.841 1.48407 271.853 1.49566C271.959 1.53044 272.03 1.60001 272.089 1.69276C272.101 1.71595 272.124 1.73914 272.136 1.77392C272.455 2.31885 272.774 2.85218 273.093 3.39711C273.72 4.47537 274.358 5.54204 274.984 6.6203C275.894 8.16233 276.804 9.71595 277.714 11.258C278.553 12.6841 279.403 14.1217 280.242 15.5478C280.892 16.6609 281.554 17.7739 282.204 18.887C282.783 19.8609 283.362 20.8464 283.929 21.8203C283.953 21.8667 283.988 21.9246 284 21.971C284 22.0522 284 22.1217 284 22.2029C283.953 22.342 283.87 22.4348 283.74 22.4928C283.728 22.5044 283.716 22.5044 283.705 22.516ZM271.711 8.18552C270.99 8.18552 270.281 8.18552 269.56 8.18552C269.525 8.18552 269.501 8.18552 269.466 8.18552C269.418 8.18552 269.406 8.2087 269.406 8.25508C269.406 8.26668 269.406 8.27827 269.406 8.28986C269.418 8.4174 269.418 8.55653 269.43 8.69566C269.442 8.8232 269.454 8.95073 269.454 9.07827C269.466 9.19421 269.466 9.31015 269.477 9.43769C269.489 9.64639 269.513 9.84349 269.525 10.0522C269.536 10.2609 269.548 10.4812 269.56 10.6899C269.56 10.7826 269.572 10.8754 269.584 10.9681C269.596 11.0841 269.607 11.2 269.607 11.3275C269.619 11.4551 269.619 11.5826 269.631 11.7102C269.631 11.8029 269.643 11.8957 269.655 11.9884C269.666 12.116 269.678 12.2319 269.678 12.3594C269.69 12.4754 269.69 12.6029 269.702 12.7189C269.702 12.8116 269.714 12.9044 269.726 12.9971C269.737 13.1246 269.749 13.2522 269.749 13.3797C269.761 13.4957 269.761 13.6232 269.773 13.7391C269.773 13.8319 269.785 13.9246 269.796 14.0174C269.808 14.1449 269.82 14.2725 269.82 14.4C269.832 14.516 269.832 14.6435 269.844 14.7594C269.844 14.8522 269.856 14.9449 269.867 15.0377C269.879 15.1768 269.891 15.316 269.891 15.4551C269.903 15.5594 269.903 15.571 270.009 15.571C271.144 15.571 272.266 15.571 273.4 15.571C273.424 15.571 273.448 15.571 273.471 15.571C273.507 15.571 273.519 15.5478 273.53 15.5246C273.53 15.5015 273.53 15.4783 273.542 15.4551C273.554 15.3391 273.554 15.2232 273.566 15.0957C273.578 14.9797 273.578 14.8638 273.59 14.7362C273.601 14.6203 273.601 14.5044 273.613 14.4C273.625 14.2145 273.637 14.0174 273.66 13.8319C273.672 13.6348 273.684 13.4377 273.696 13.229C273.696 13.1362 273.708 13.0551 273.72 12.9623C273.731 12.858 273.731 12.742 273.743 12.6377C273.755 12.5217 273.755 12.4058 273.767 12.2783C273.767 12.1855 273.779 12.1044 273.79 12.0116C273.802 11.8957 273.814 11.7797 273.814 11.6522C273.826 11.5362 273.826 11.4203 273.838 11.316C273.85 11.2232 273.85 11.142 273.861 11.0493C273.873 10.9333 273.873 10.829 273.885 10.7131C273.897 10.5971 273.897 10.4812 273.909 10.3652C273.909 10.2841 273.92 10.2029 273.932 10.1102C273.944 9.99421 273.944 9.87827 273.956 9.75073C273.968 9.63479 273.968 9.51885 273.979 9.4145C273.979 9.33334 273.991 9.24059 274.003 9.15943C274.015 9.04349 274.015 8.92755 274.027 8.8116C274.039 8.67247 274.05 8.54494 274.05 8.40581C274.05 8.34784 274.062 8.30146 274.062 8.24349C274.062 8.2087 274.05 8.18552 274.003 8.18552C273.968 8.18552 273.944 8.18552 273.909 8.18552C273.141 8.18552 272.42 8.18552 271.711 8.18552ZM271.711 16.4406C271.014 16.4406 270.305 16.4406 269.607 16.4406C269.584 16.4406 269.548 16.4406 269.525 16.4406C269.489 16.4406 269.466 16.4638 269.466 16.4986C269.466 16.5333 269.466 16.5565 269.466 16.5913C269.466 17.1594 269.466 17.7275 269.466 18.2957C269.466 18.887 269.466 19.4783 269.466 20.058C269.466 20.0928 269.466 20.1275 269.466 20.1507C269.466 20.1855 269.489 20.1971 269.513 20.1971C269.548 20.1971 269.584 20.1971 269.607 20.1971C270.86 20.1971 272.124 20.1971 273.377 20.1971C273.519 20.1971 273.672 20.1971 273.814 20.1971C273.838 20.1971 273.861 20.1971 273.885 20.1971C273.909 20.1971 273.932 20.1739 273.932 20.1507C273.932 20.1159 273.932 20.0812 273.932 20.058C273.932 19.4319 273.932 18.7942 273.932 18.1681C273.932 17.6464 273.932 17.1131 273.932 16.5913C273.932 16.5565 273.932 16.5333 273.932 16.4986C273.932 16.4638 273.909 16.4406 273.873 16.4406C273.85 16.4406 273.814 16.4406 273.79 16.4406C273.105 16.4406 272.408 16.4406 271.711 16.4406Z" fill="white"/>
</g>
<defs>
<clipPath id="clip0_191_4019">
<rect width="284" height="24" fill="white"/>
</clipPath>
</defs>
</svg>

<svg xmlns="http://www.w3.org/2000/svg" width="284" height="24" fill="none" xmlns:v="https://vecta.io/nano"><g clip-path="url(#A)"><g fill="#fff"><path d="M11.781 12h11.19c0 6.064-5.01 10.98-11.19 10.98V12z"/><path d="M11.781 1.02V12H.591c0-6.064 5.01-10.98 11.19-10.98z"/></g><g stroke="#fff" stroke-miterlimit="10"><path d="M11.781 22.98c6.18 0 11.19-4.916 11.19-10.98s-5.01-10.98-11.19-10.98S.591 5.936.591 12s5.01 10.98 11.19 10.98zm130.633-.951c22.658 0 41.027-4.49 41.027-10.029S165.072 1.971 142.414 1.971 101.386 6.461 101.386 12s18.369 10.029 41.028 10.029z"/><path d="M142.414 22.029c5.645 0 10.221-4.49 10.221-10.029s-4.576-10.029-10.221-10.029S132.192 6.461 132.192 12s4.577 10.029 10.222 10.029z"/></g><g fill="#fff"><path d="M142.414 13.844c1.037 0 1.878-.825 1.878-1.844s-.841-1.844-1.878-1.844-1.879.825-1.879 1.844.841 1.844 1.879 1.844zM243.233 24h-37.601c-1.335 0-2.422-1.067-2.422-2.377V2.377c0-1.31 1.087-2.377 2.422-2.377h37.601c1.335 0 2.422 1.067 2.422 2.377v19.235c.012 1.322-1.075 2.388-2.422 2.388z"/></g><g fill="#000"><path d="M210.253 15.003v-2.041l7.326-5.82h3.675v5.994h2.068v1.867h-2.068v2.168h-2.931v-2.168h-8.07zm8.059-5.704h-.071l-4.715 3.768v.081h4.797V9.299h-.011zm20.501 7.872h-3.828l-4.231-4.985-2.859 2.064v2.922h-3.025V6.91h3.025v4.499l6.074-4.499h4.088l-4.986 3.606 5.742 6.655z"/></g><path d="M79.431 24h-37.6c-1.335 0-2.422-1.067-2.422-2.377V2.377C39.397 1.067 40.484 0 41.831 0h37.6c1.335 0 2.422 1.067 2.422 2.377v19.235c0 1.322-1.087 2.388-2.422 2.388z" fill="#fff"/><g fill="#000"><path d="M59.603 6.91v10.261h-3.025v-4.162h-7.35v4.162h-3.025V6.91h3.025v3.919h7.35V6.91h3.025zm15.87 5.136c0 3.687-2.245 5.125-6.298 5.125h-7.362V6.91h7.362c4.041 0 6.298 1.449 6.298 5.136zM64.838 9.055v5.971h3.675c2.304 0 3.628-.846 3.628-2.991s-1.323-2.991-3.628-2.991h-3.675v.012z"/></g><path d="M283.705 22.516h-23.988c-.012-.012-.024-.012-.036-.023-.13-.046-.212-.139-.26-.267-.011-.023-.011-.035-.035-.058v-.162c.012-.012.024-.035.024-.046l.071-.139 1.004-1.693 1.276-2.18 1.678-2.852 1.584-2.702 1.689-2.864 1.525-2.586 1.689-2.864 1.383-2.354c.071-.116.165-.209.295-.243.012 0 .012-.012.024-.012h.177c.012.012.036.012.048.023.106.035.177.104.236.197.012.023.035.046.047.081l.957 1.623 1.891 3.223 2.73 4.638 2.528 4.29 1.962 3.339 1.725 2.933c.024.046.059.104.071.151v.232c-.047.139-.13.232-.26.29-.012.012-.024.012-.035.023zm-11.994-14.33h-2.151-.094c-.048 0-.06.023-.06.07v.035l.024.406.024.383.023.359.048.615.035.638c0 .093.012.186.024.278l.023.359.024.383c0 .093.012.185.024.278l.023.371.024.359c0 .093.012.186.024.278l.023.383.024.359c0 .093.012.185.023.278l.024.383.024.359c0 .093.012.186.023.278l.024.417c.012.104.012.116.118.116h3.391.071c.036 0 .048-.023.059-.046 0-.023 0-.046.012-.069l.024-.359.024-.36.023-.336.047-.568.036-.603c0-.093.012-.174.024-.267l.023-.325.024-.359c0-.093.012-.174.023-.267l.024-.359.024-.336.023-.267.024-.336s.012-.232.024-.348c0-.081.011-.162.023-.255l.024-.359.023-.336c0-.081.012-.174.024-.255l.024-.348.023-.406c0-.058.012-.104.012-.162 0-.035-.012-.058-.059-.058h-.094-2.198zm0 8.255h-2.104-.082c-.036 0-.059.023-.059.058v.093 1.704 1.762.093c0 .035.023.046.047.046h.094 3.77.437.071a.05.05 0 0 0 .047-.046v-.093-1.89-1.577-.093c0-.035-.023-.058-.059-.058h-.083-2.079z" fill="#fff"/></g><defs><clipPath id="A"><path fill="#fff" d="M0 0h284v24H0z"/></clipPath></defs></svg>
